X:1004
T:Merrily Danced the Quaker's Wife
S:Kerr's Merry Melodies Book 1
Z:Nigel Gatherer
L:1/8
M:6/8
K:D
A | def A2f | g2f e2d | def A2A | B3 d2A |
def A2f | agf e2d | def A2A | B3 d2 :|
A | d2f a2f | b2g a2f | d2f a2g | f3 a2a |
b2g efg | a2f d2A | def A2A | B3 d2 :|
<end>
<start>
